X: 1122
T: Hüzzam Peşrev
C: Tanburî Büyük Osman Bey
O: Turkey
F: http://compmusic.upf.edu/node/140
N: huzzam--pesrev--devrikebir----tanburi_buyuk_osman_bey
N: makam= huzzam
N: form= pesrev
N: usul= devrikebir = 28/4
M: 28/4
L: 1/16
K: C _1/4B _3/4e ^3/4f 
Q: 1/4=69
%%MIDI tuningsystem comma53
c4 d4 c2B2 f2e2  | fed4B2 cdcB c2d_1/4e  | \
w:  1. HANE  |   | 
dcB^A B2c2 B4 d2ed  | 
w:   | 
fg2f e2d2 dccB c2d2  | c4 d2e2 d3/2e/fg a_bag  | 
w:   |   | 
agf4d2 edef ed^c2  | d6^c2 dedc d2e2  | \
w:   |   | 
d2f2 e6ed d2ed  | 
w:   | 
fg2f e2d2 efed e2fg  | fedc dd2e f2g2 a_bag  | 
w:   |   | 
agf4d2 edef ed^c2  | defg a2_b2 a4 g4  | \
w:   |   | 
f3e d2f2 e3d ^cdec  | 
w:   | 
d^cde fga_b aggf g4  | f4 g8 f2g2  | \
w:   |   | 
a2_b2 a2g2 agfe defg  | 
w:   | 
e3/2d/eg f8 e2f2  | g2a_b agf2 agfe d4  | \
w:   |   | 
d2_1/4ef g2=f_3/4e d4 c2B2  | 
w:   | 
A2Bc BAG2 e3/2d/ef e2d2  | d2cd c2B2 c8  | \
w:   |   | 
z2G4F2 GAGF G2^A2  | 
w:   | 
B2c2 B2^A2 BcBA B4  | c2d_1/4e dcB2 c4 d4  | \
w:   |   | 
d4 e4 edef e2d2  | 
w:   | 
d2cd c2B2 fga_b agfe  | fed4B2 c2d_1/4e dccB  | 
w:   |   | 
Bcde fgag gff^e f4  | f2g4gf f6ed  | \
w:  2. HANEYE  |  2. HANE  | 
edef e2d2 dcBc d3/2c/BA  | 
w:   | 
GBd2 c2B2 GBf2 e2d2  | d2c2 c2d_1/4e dcB^A B2c2  | 
w:   |   | 
B4 d2=e2 d4 c2_2/4B2  | c3/2_2/4B/AB ABAG z2c_1/4B c2d2  | \
w:   |   | 
c4 d4 d3/2=e/=fe dcBA  | 
w:   | 
G2G4A2 B3/2A/Bc BcBA  | A3/2G/AB ABAG Gg=f=e dcBA  | 
w:   |   | 
G2B4c2 d6B2  | cdcB c2de dcB^A B2c2  | \
w:   |   | 
B4 B2c2 B4 c4  | 
w:   | 
d4 e4 g3f e2d2  | e3g f4 f3/2e/fg fedc  | \
w:   |   | 
B4 f2g2 f4 g4  | 
w:   | 
^a2b2 g2a2 bc'ba b2c'2  | b4 b2c'2 (3c'2b2c'2 (3_b2a2b2  | \
w:   |   | 
(3a2g2a2 g2f2 agfe d4  | 
w:   | 
d4 e2f2 f4 e2d2  | d2ef edc2 e3/2d/ef e2d2  | \
w:   |   | 
d2cd c2B2 c8  | 
w:   | 
z2G4F2 GAGF G2^A2  | B2c2 B2^A2 BcBA B4  | \
w:   |   | 
c2d_1/4e dcB2 c4 d4  | 
w:   | 
d4 e4 edef e2d2  | d2cd c2B2 fga_b agfe  | 
w:   |   | 
fed4B2 c2d_1/4e dccB  | Bcde ^fg^ab c'3/2b/ac' b4  | 
w:   |  3. HANEYE  | 
^a4 b4 b2c'2 b2a2  | ^a2g4ab agf^3/4e f4  | \
w:  3. HANE  |   | 
g2^a2 f2g2 a2b2 g2a2  | 
w:   | 
b3^3/4a g2f2 e2d2 c2B2  | B4 ^a2b2 b4 d'4  | \
w:   |   | 
d'2c'4b2 ^a2b2 c'd'c'b  | 
w:   | 
b6c'2 d'2c'2 d'4  | d'2z2 c'2d'2 d'4 =e'4  | \
w:   |   | 
d'2c'4b2 d'c'b^a b2c'2  | b4 ^a2b2 c'2d'2 c'2b2  | 
w:   |   | 
b2b^a a2ag agf^3/4e f4  | f2z2 fg^ab c'3b b3a  | 
w:   |   | 
^a3g g3f ^3/4e2f2 gagf  | f6g2 gff^3/4e f4  | \
w:   |   | 
f^3/4efg f2e2 edd^c d4  | 
w:   | 
d^cd=e d2{e}=c2 cB2^A B2c2  | B4 B2c2 B4 ^c4  | \
w:   |   | 
d2{_1/4e}dc B2c2 d8  | 
w:   | 
(3^c2d2c2 d2g2 (3f2g2^1/4f2 (3=e2=f2e2  | \
w:   | 
(3d2=e2d2 (3^c2d2c2 dcB^A B2=c2  | 
w:   | 
B6A2 c8  | z2G4F2 GAGF G2^A2  | B2c2 B2^A2 BcBA B4  | 
w:   |   |   | 
c2d_1/4e dcB2 c4 d4  | d4 e4 edef e2d2  | \
w:   |   | 
d2cd c2B2 fga_b agfe  | 
w:   | 
fed4B2 c2d_1/4e dccB  | B8 z8  | |


